X: 130736
T: Molloy's
S: "First Collection of Traditional Irish Music" (M.Mulvihill)
Z: B.Black
L: 1/8
M: 6/8
R: jig
K: Edor
e/f/|gfg edB|BAB EFG|FEF DFA|dAF AFD|
gfg edB|BAB EFG|B/c/dB AGF|GEE E2 :|
d|efe Bdg|bge fec|dcd Adf|afd edB|
e/f/ge Bdg|bge fed|B/c/dB AGF|GEE E2 :|
